img/svg/buttons-icons/trash-ico-dsbl.svg

<svg width="16" height="16" viewBox="0 0 16 16" fill="none" xmlns="http://www.w3.org/2000/svg">
   <path d="M14.75 2.59375H10.9688V1.875C10.9688 0.841125 10.1276 0 9.09375 0H6.90625C5.87238 0 5.03125 0.841125 5.03125 1.875V2.59375H1.25C0.904813 2.59375 0.625 2.87356 0.625 3.21875C0.625 3.56394 0.904813 3.84375 1.25 3.84375H1.89725L2.65894 13.7183C2.65916 13.7212 2.65941 13.7241 2.65966 13.727C2.71641 14.3497 3.00197 14.9247 3.46372 15.3463C3.92547 15.7678 4.52409 16 5.14931 16H10.8507C12.1528 16 13.2231 15.0302 13.3403 13.7443C13.3717 13.4005 13.1184 13.0964 12.7747 13.0651C12.4306 13.0338 12.1268 13.287 12.0955 13.6307C12.0373 14.2688 11.5022 14.75 10.8507 14.75H5.14931C4.50003 14.75 3.96572 14.2634 3.90484 13.6174L3.15097 3.84375H12.849L12.3152 10.7644C12.2887 11.1086 12.5462 11.4091 12.8903 11.4357C12.9067 11.4369 12.9229 11.4375 12.9391 11.4375C13.2624 11.4375 13.5362 11.1883 13.5615 10.8606L14.1027 3.84375H14.75C15.0952 3.84375 15.375 3.56394 15.375 3.21875C15.375 2.87356 15.0952 2.59375 14.75 2.59375ZM9.71875 2.59375H6.28125V1.875C6.28125 1.53038 6.56163 1.25 6.90625 1.25H9.09375C9.43837 1.25 9.71875 1.53038 9.71875 1.875V2.59375Z" fill="#BDBDBD"/>
   <path d="M5.16017 5.09434C4.81533 5.10941 4.54798 5.40116 4.56305 5.74603L4.87555 12.9002C4.8902 13.2357 5.16686 13.4979 5.49948 13.4979C5.50867 13.4979 5.51795 13.4977 5.52723 13.4973C5.87208 13.4822 6.13942 13.1905 6.12436 12.8456L5.81186 5.69144C5.79679 5.34663 5.50448 5.07884 5.16017 5.09434Z" fill="#BDBDBD"/>
   <path d="M10.1881 5.69147L9.87556 12.8456C9.8605 13.1905 10.1278 13.4823 10.4727 13.4973C10.482 13.4977 10.4912 13.498 10.5004 13.498C10.833 13.498 11.1097 13.2358 11.1244 12.9002L11.4369 5.74606C11.4519 5.40122 11.1846 5.10944 10.8397 5.09438C10.4955 5.07897 10.2031 5.34662 10.1881 5.69147Z" fill="#BDBDBD"/>
   <path d="M7.375 5.71875V12.8729C7.375 13.2181 7.65481 13.4979 8 13.4979C8.34519 13.4979 8.625 13.2181 8.625 12.8729V5.71875C8.625 5.37356 8.34519 5.09375 8 5.09375C7.65481 5.09375 7.375 5.37356 7.375 5.71875Z" fill="#BDBDBD"/>
</svg>

<svg width="16" height="16" fill="none" xmlns="http://www.w3.org/2000/svg"><path d="M14.75 2.594h-3.781v-.719A1.877 1.877 0 009.094 0H6.906a1.877 1.877 0 00-1.875 1.875v.719H1.25a.625.625 0 100 1.25h.647l.762 9.874a2.494 2.494 0 00.805 1.628A2.49 2.49 0 005.149 16h5.702a2.48 2.48 0 002.49-2.256.625.625 0 10-1.245-.113 1.236 1.236 0 01-1.245 1.119H5.149a1.244 1.244 0 01-1.244-1.133L3.15 3.844h9.698l-.534 6.92a.625.625 0 001.247.097l.54-7.017h.648a.625.625 0 100-1.25zm-5.031 0H6.28v-.719c0-.345.28-.625.625-.625h2.188c.344 0 .625.28.625.625v.719z" fill="#BDBDBD"/><path d="M5.16 5.094a.625.625 0 00-.597.652l.313 7.154a.625.625 0 001.248-.054L5.812 5.69a.625.625 0 00-.652-.597zm5.028.597l-.312 7.155a.625.625 0 101.248.054l.313-7.154a.625.625 0 00-1.249-.055zm-2.813.028v7.154a.625.625 0 101.25 0V5.719a.625.625 0 10-1.25 0z" fill="#BDBDBD"/></svg>
